icons/badge/remove/octagon.svg

<svg width="32" height="32" viewBox="0 0 32 32" fill="none" xmlns="http://www.w3.org/2000/svg">
<path fill-rule="evenodd" clip-rule="evenodd" d="M11.0808 2C10.5503 2 10.0416 2.21071 9.66655 2.58579L2.58566 9.66667C2.21059 10.0417 1.99988 10.5504 1.99988 11.0809V20.9191C1.99988 21.4496 2.21059 21.9583 2.58566 22.3333L9.66654 29.4142C10.0416 29.7893 10.5503 30 11.0808 30H20.919C21.4494 30 21.9581 29.7893 22.3332 29.4142L29.4141 22.3333C29.7892 21.9583 29.9999 21.4496 29.9999 20.9191V11.0809C29.9999 10.5504 29.7892 10.0417 29.4141 9.66667L22.3332 2.58579C21.9581 2.21071 21.4494 2 20.919 2H11.0808ZM11.0808 4L20.919 4L27.9999 11.0809L27.9999 20.9191L20.919 28L11.0808 28L3.99988 20.9191V11.0809L11.0808 4ZM9 17H23V15H9V17Z" fill="black"/>
</svg>

<svg viewBox="0 0 32 32" xmlns="http://www.w3.org/2000/svg"><path fill-rule="evenodd" d="M11.08 2a2 2 0 00-1.413.586l-7.081 7.08A2 2 0 002 11.082v9.838a2 2 0 00.586 1.414l7.08 7.081a2 2 0 001.415.586h9.838a2 2 0 001.414-.586l7.081-7.08A2 2 0 0030 20.918v-9.838a2 2 0 00-.586-1.414l-7.08-7.081A2 2 0 0020.918 2h-9.838zm0 2h9.839l7.08 7.08v9.84L20.92 28h-9.838L4 20.92v-9.84L11.08 4zM9 17h14v-2H9v2z"/></svg>
